Assets/Icons/interaction/arrows-expand.svg

<svg enable-background="new 0 0 60 60" viewBox="0 0 60 60" xmlns="http://www.w3.org/2000/svg"><path d="m6.61 4.48h11.92c1.36 0 2.47-1.11 2.47-2.47 0-.28-.22-.5-.5-.5h-16.98c-1.1 0-2 .9-2 2v16.99c0 .28.22.5.5.5 1.36 0 2.47-1.11 2.47-2.47v-11.92l19.69 19.72c.98.98 2.56.98 3.54 0 .2-.2.2-.51 0-.71z"/><path d="m56.49 1.52h-16.99c-.28 0-.5.22-.5.5 0 1.36 1.11 2.47 2.47 2.47h11.92l-19.69 19.72c-.98.98-.97 2.56 0 3.54.2.2.51.19.71 0l21.1-21.13v11.92c0 1.36 1.11 2.47 2.47 2.47.28 0 .5-.22.5-.5v-16.99c.01-1.11-.89-2-1.99-2z"/><path d="m26.29 32.29c-.2-.2-.51-.2-.71 0l-21.1 21.1v-11.92c0-1.36-1.11-2.47-2.47-2.47-.28 0-.5.22-.5.5v16.99c0 1.1.9 2 2 2h16.99c.28 0 .5-.22.5-.5 0-1.36-1.11-2.47-2.47-2.47h-11.92l19.68-19.68c.98-.99.98-2.57 0-3.55z"/><path d="m57.99 39c-1.36 0-2.47 1.11-2.47 2.47v11.92l-19.69-19.68c-.98-.98-2.56-.98-3.54 0-.2.2-.2.51 0 .71l21.1 21.1h-11.92c-1.36 0-2.47 1.11-2.47 2.47 0 .28.22.5.5.5h16.99c1.1 0 2-.9 2-2v-16.99c0-.28-.23-.5-.5-.5z"/></svg>

<?xml version="1.0" encoding="utf-8"?>
<!-- Generator: Adobe Illustrator 21.1.0, SVG Export Plug-In . SVG Version: 6.00 Build 0)  -->
<svg version="1.1" id="eps" xmlns="http://www.w3.org/2000/svg" xmlns:xlink="http://www.w3.org/1999/xlink" x="0px" y="0px"
	 viewBox="0 0 60 60" style="enable-background:new 0 0 60 60;" xml:space="preserve">
<g>
	<path d="M6.61,4.48h11.92c1.36,0,2.47-1.11,2.47-2.47c0-0.28-0.22-0.5-0.5-0.5H3.52c-1.1,0-2,0.9-2,2V20.5c0,0.28,0.22,0.5,0.5,0.5
		c1.36,0,2.47-1.11,2.47-2.47V6.61l19.69,19.72c0.98,0.98,2.56,0.98,3.54,0l0,0c0.2-0.2,0.2-0.51,0-0.71L6.61,4.48z"/>
	<path d="M56.49,1.52H39.5c-0.28,0-0.5,0.22-0.5,0.5c0,1.36,1.11,2.47,2.47,2.47h11.92L33.7,24.21c-0.98,0.98-0.97,2.56,0,3.54l0,0
		c0.2,0.2,0.51,0.19,0.71,0l21.1-21.13v11.92c0,1.36,1.11,2.47,2.47,2.47l0,0c0.28,0,0.5-0.22,0.5-0.5V3.52
		C58.49,2.41,57.59,1.52,56.49,1.52z"/>
	<path d="M26.29,32.29c-0.2-0.2-0.51-0.2-0.71,0l-21.1,21.1V41.47c0-1.36-1.11-2.47-2.47-2.47c-0.28,0-0.5,0.22-0.5,0.5v16.99
		c0,1.1,0.9,2,2,2H20.5c0.28,0,0.5-0.22,0.5-0.5l0,0c0-1.36-1.11-2.47-2.47-2.47H6.61l19.68-19.68
		C27.27,34.85,27.27,33.27,26.29,32.29L26.29,32.29z"/>
	<path d="M57.99,39c-1.36,0-2.47,1.11-2.47,2.47v11.92L35.83,33.71c-0.98-0.98-2.56-0.98-3.54,0l0,0c-0.2,0.2-0.2,0.51,0,0.71
		l21.1,21.1H41.47c-1.36,0-2.47,1.11-2.47,2.47c0,0.28,0.22,0.5,0.5,0.5h16.99c1.1,0,2-0.9,2-2V39.5C58.49,39.22,58.26,39,57.99,39z
		"/>
</g>
</svg>
